X: 30257
T: Old Lancashire Hornpipe, The
R: three-two
M: 3/2
K: Dmajor
B2A2G2|F3E D2f2 e2d2|e2E4 B2 A2G2|F3E D2f2 e2dc|
|:B2A2G2|F2A2 G2B2 A2d2|e2E4 B2 A2G2|F2A2 G2B2 A2c2|
|:f2g2a2|f3e d2f2 e2d2|c2e4 f2 g2a2|f3e d2f2 e2dc|d2D4:|

